nfc.svg

<svg fill="currentColor" viewBox="0 0 24 24"><path d="M7.24 2c-1.64 0-3.28 0-3.69.04-.88.05-1.47.69-1.51 1.52-.04.81-.04 16.03 0 16.85.05.82.67 1.45 1.51 1.5.91.05 3.89.06 4.74.06-1.53-1.06-1.74-3.05-1.88-6.74-.08-2.19-.01-9.87 0-10.19l.04-2.1L14.5 11v2.5L8.09 7.11c-.01 1.27-.03 2.92-.03 4.43 0 1.46.02 2.8.06 3.51.24 4.02.62 5.91 2.71 6.65.67.23 1.24.3 2.24.3.82 0 6.56 0 7.38-.04.88-.05 1.48-.69 1.52-1.52.03-.81.03-15.99 0-16.82-.06-.82-.68-1.44-1.52-1.49-.91-.05-3.88-.1-4.74-.1 1.53 1.06 1.73 3.05 1.88 6.75.08 2.19.01 9.86 0 10.19l-.04 2.09L9.53 13v-2.5l6.38 6.39c.01-1.27.03-2.92.03-4.43 0-1.46-.02-2.8-.06-3.5-.24-4.03-.62-5.92-2.71-6.66-.64-.23-1.24-.3-2.24-.3z"/></svg>

<svg  viewBox="0 0 24 24" fill="currentColor"><path  d="M7.24 2C5.6 2 3.96 2 3.55 2.04C2.67 2.09 2.08 2.73 2.04 3.56C2 4.37 2 19.59 2.04 20.41C2.09 21.23 2.71 21.86 3.55 21.91C4.46 21.96 7.44 21.97 8.29 21.97C6.76 20.91 6.55 18.92 6.41 15.23C6.33 13.04 6.4 5.36 6.41 5.04L6.45 2.94L14.5 11V13.5L8.09 7.11C8.08 8.38 8.06 10.03 8.06 11.54C8.06 13 8.08 14.34 8.12 15.05C8.36 19.07 8.74 20.96 10.83 21.7C11.5 21.93 12.07 22 13.07 22C13.89 22 19.63 22 20.45 21.96C21.33 21.91 21.93 21.27 21.97 20.44C22 19.63 22 4.45 21.97 3.62C21.91 2.8 21.29 2.18 20.45 2.13C19.54 2.08 16.57 2.03 15.71 2.03C17.24 3.09 17.44 5.08 17.59 8.78C17.67 10.97 17.6 18.64 17.59 18.97L17.55 21.06L9.53 13V10.5L15.91 16.89C15.92 15.62 15.94 13.97 15.94 12.46C15.94 11 15.92 9.66 15.88 8.96C15.64 4.93 15.26 3.04 13.17 2.3C12.53 2.07 11.93 2 10.93 2H7.24Z"/></svg>
